X: 40070
T: Thrush In The Morning, The
R: reel
M: 4/4
K: Dmajor
ag|:f2ef d2AF|AdAF Agfe|dAAF DF~F2|ABdf egfe|
dAAF dAAF|BAFA dADE|EDFA defa|1 afef dfag:|2 afef d2(3ABc||
|:dgfe faaf|~g3e fgfe|dcde faaf|gafg eAce|
dgfe faa^g|~a3f efdB|ADFA defa|afef d2 (3ABc:|
|:dAAF BAAF|~D3F AF~F2|dFAF dF~F2|ABdf egfe|
d2AF DF~F2|AdFA DF~F2|ABde fa^gb|1 afef d2 (3ABc:|2 afef dfag||

